src/img/brand.philips.svg

<svg xmlns="http://www.w3.org/2000/svg" width="2500" height="458" viewBox="0 0 399.809 73.31"><path d="M40.602 27.084c0 9.129-4.415 15.312-15.596 15.312h-3.533V13.322c1.256-.071 2.429-.071 3.533-.071 10.587-.001 15.596 5.003 15.596 13.833M29.125 55.055c20.006 0 32.655-10.307 32.655-28.262C61.779 7.064 48.247 0 26.183 0 17.65 0 7.353.587 0 1.47v70.37h21.474V55.055h7.651zm287.718-27.971c0 9.129-4.409 15.312-15.593 15.312h-3.521V13.322c1.245-.071 2.42-.071 3.521-.071 10.588-.001 15.593 5.003 15.593 13.833m-11.464 27.971c19.99 0 32.646-10.307 32.646-28.262C338.025 7.064 324.495 0 302.429 0c-8.531 0-18.834.587-26.188 1.47v70.37h21.485V55.055h7.653zm60.59-35.626c0-3.826 3.829-5.595 10.001-5.595 6.769 0 14.129 1.473 19.126 3.542l-1.763-15.315C387.74.883 382.739 0 373.622 0c-17.359 0-29.123 6.848-29.123 21.201 0 24.725 33.543 19.724 33.543 31.206 0 4.412-3.241 6.766-11.188 6.766-7.05 0-17.943-2.354-24.414-5.591l2.36 16.198c6.466 2.355 15.292 3.529 22.355 3.529 17.94 0 32.653-5.89 32.653-23.558 0-23.545-33.839-19.133-33.839-30.322M260.067 1.47h-21.474v70.37h21.474V1.47zm-87.083 0h-21.476v70.37h21.476V1.47zm37.362 56.233V1.47H188.87v70.37h38.837l3.233-14.137h-20.594zM135.623 1.47h-21.476v27.97H91.788V1.47h-21.48v70.37h21.479V44.161h22.359V71.84h21.476l.001-70.37z" fill="#1978be"/></svg>

<svg xmlns="http://www.w3.org/2000/svg" width="400" height="74" viewBox="0 0 400 74">
  <path fill="#FFF" d="M40.602,27.084 C40.602,36.213 36.187,42.396 25.006,42.396 L21.473,42.396 L21.473,13.322 C22.729,13.251 23.902,13.251 25.006,13.251 C35.593,13.25 40.602,18.254 40.602,27.084 Z M29.125,55.055 C49.131,55.055 61.78,44.748 61.78,26.793 C61.779,7.064 48.247,0 26.183,0 C17.65,0 7.353,0.587 0,1.47 L0,71.84 L21.474,71.84 L21.474,55.055 L29.125,55.055 Z M316.843,27.084 C316.843,36.213 312.434,42.396 301.25,42.396 L297.729,42.396 L297.729,13.322 C298.974,13.251 300.149,13.251 301.25,13.251 C311.838,13.25 316.843,18.254 316.843,27.084 Z M305.379,55.055 C325.369,55.055 338.025,44.748 338.025,26.793 C338.025,7.064 324.495,0 302.429,0 C293.898,0 283.595,0.587 276.241,1.47 L276.241,71.84 L297.726,71.84 L297.726,55.055 L305.379,55.055 Z M365.969,19.429 C365.969,15.603 369.798,13.834 375.97,13.834 C382.739,13.834 390.099,15.307 395.096,17.376 L393.333,2.061 C387.74,0.883 382.739,0 373.622,0 C356.263,0 344.499,6.848 344.499,21.201 C344.499,45.926 378.042,40.925 378.042,52.407 C378.042,56.819 374.801,59.173 366.854,59.173 C359.804,59.173 348.911,56.819 342.44,53.582 L344.8,69.78 C351.266,72.135 360.092,73.309 367.155,73.309 C385.095,73.309 399.808,67.419 399.808,49.751 C399.808,26.206 365.969,30.618 365.969,19.429 Z M260.067,1.47 L238.593,1.47 L238.593,71.84 L260.067,71.84 L260.067,1.47 Z M172.984,1.47 L151.508,1.47 L151.508,71.84 L172.984,71.84 L172.984,1.47 Z M210.346,57.703 L210.346,1.47 L188.87,1.47 L188.87,71.84 L227.707,71.84 L230.94,57.703 L210.346,57.703 Z M135.623,1.47 L114.147,1.47 L114.147,29.44 L91.788,29.44 L91.788,1.47 L70.308,1.47 L70.308,71.84 L91.787,71.84 L91.787,44.161 L114.146,44.161 L114.146,71.84 L135.622,71.84 L135.623,1.47 Z"/>
</svg>
